X: 21621
T: The Jessamine Bower
Q: "Slow"
%R: jig
B: James Oswald "The Caledonian Pocket Companion" v.2 p.162 #3
Z: 2018 John Chambers <jc:trillian.mit.edu>
M: C
L: 1/8
K: E
(BA) |\
(GF)(E^D) E2(ef) | (ge)(dB) A2G>A |\
B3e {e}dBAB | {A}TG2F>E E2 :: e>f |\
(g>f)(e>f) (g>f)(e>f) | (g>f)(e>d) B2(e>f) |
(g>f)(e>f) g3e | d(BTAG) A3B |\
(EF)(GA) B2(e>f) | (gf)(e^d) e2(e/f/)g |\
{e}dB/d/ TAG A2(G/A/)B | {A}G2 TF>E !fine!E2 :|

%%center FINE

